X:1
T:[ID 6-23]
T:[ID 6-23]
T:Bezeichnung standardisiert: Schwabisch Schwabisch 10.
T:Urheber unbekannt Datum in der hier transkribierten schriftlichen Quelle: 1775
C:Urheber unbekannt
C:Datum in der hier transkribierten schriftlichen Quelle: 1775
L:1/8
M:3/8
K:D
V:1 treble 
V:1
 FDF | GEG | CDE | F/E/F/G/F | FDF | GEG | CDE | F3 :: ece | dFd | A/G/F/E/C | fd/e/f/d/ | %12
 ec/d/e/c/ | A/G/FE | F3 :| %15

